src/assets/whiteboard_icons/xy_graph.svg

<svg fill="none" height="24" viewBox="0 0 24 24" width="24" xmlns="http://www.w3.org/2000/svg"><g fill="#000"><path clip-rule="evenodd" d="m3.32843.146447c.19526-.1952625.51184-.1952625.7071 0l3.18198 3.181983c.19527.19526.19527.51184 0 .7071-.19526.19527-.51184.19527-.7071 0l-2.32843-2.32842v17.29289h17.29292l-2.3285-2.3284c-.1952-.1953-.1952-.5119 0-.7071.1953-.1953.5119-.1953.7072 0l3.1819 3.1819c.1953.1953.1953.5119 0 .7072l-3.1819 3.1819c-.1953.1953-.5119.1953-.7072 0-.1952-.1952-.1952-.5118 0-.7071l2.3285-2.3284h-18.29292v-18.29289l-2.328427 2.32842c-.195262.19527-.511844.19527-.707106 0-.1952625-.19526-.1952625-.51184 0-.7071z" fill-rule="evenodd"/><path d="m12.0723 7.5-2.60923 4.3167v2.6833h-1.183v-2.6833l-2.59819-4.3167h1.31568l1.30462 2.25909.57492 1.03941.57492-1.03941 1.29358-2.25909z"/><path d="m18.6819 14.5h-1.3931l-1.8021-2.6939-1.7911 2.6939h-1.3599l2.5318-3.553-2.3328-3.447h1.3931l1.6694 2.5455 1.6916-2.5455h1.2936l-2.366 3.4045z"/></g></svg>

<svg width="24" height="24" viewBox="0 0 24 24" fill="none" xmlns="http://www.w3.org/2000/svg">
<path fill-rule="evenodd" clip-rule="evenodd" d="M3.32843 0.146447C3.52369 -0.0488155 3.84027 -0.0488155 4.03553 0.146447L7.21751 3.32843C7.41278 3.52369 7.41278 3.84027 7.21751 4.03553C7.02225 4.2308 6.70567 4.2308 6.51041 4.03553L4.18198 1.70711V19H21.4749L19.1464 16.6716C18.9512 16.4763 18.9512 16.1597 19.1464 15.9645C19.3417 15.7692 19.6583 15.7692 19.8536 15.9645L23.0355 19.1464C23.2308 19.3417 23.2308 19.6583 23.0355 19.8536L19.8536 23.0355C19.6583 23.2308 19.3417 23.2308 19.1464 23.0355C18.9512 22.8403 18.9512 22.5237 19.1464 22.3284L21.4749 20H3.18198V1.70711L0.853553 4.03553C0.658291 4.2308 0.341709 4.2308 0.146447 4.03553C-0.0488155 3.84027 -0.0488155 3.52369 0.146447 3.32843L3.32843 0.146447Z" fill="black"/>
<path d="M12.0723 7.5L9.46307 11.8167V14.5H8.28007V11.8167L5.68188 7.5H6.99756L8.30218 9.75909L8.8771 10.7985L9.45202 9.75909L10.7456 7.5H12.0723Z" fill="black"/>
<path d="M18.6819 14.5H17.2888L15.4867 11.8061L13.6956 14.5H12.3357L14.8675 10.947L12.5347 7.5H13.9278L15.5972 10.0455L17.2888 7.5H18.5824L16.2164 10.9045L18.6819 14.5Z" fill="black"/>
</svg>
